X:1
T:James Gibb editions
T:Psalm 133 (Becker) - Schütz
%%score [ ( 1 2 ) ( 3 4 ) ]
L:1/8
Q:1/4=98
M:2/2
K:F
V:1 treble nm="Soprano Alto"
V:2 treble 
V:3 bass nm="Tenor Bass"
V:4 bass 
V:1
"^Cornelius Becker\n(1561-1604)""^Psalm 133, SWV 238""^Heinrich Schütz\n(1585-1672)" d8 | B4 A4 | %2
w: ~Wie|ists so|
 (G3 A B2) _e2 | d4 c4 | B8 | d8 | e4 f4 | d6 c2 | (B2 d2) ^c4 | d8 |[M:2/2] A8 | B4 B4 | c4 _e4 | %13
w: fein * * lieb-|lich und|schön,|wenn|Brü- der|wohl zu-|sam\- * men|stehn,||||
 (d2 c2) B4 | A8 | G8 | B4 c4 | (d3 c B2) A2- | A2 G4 ^F2 | G8 |] %20
w: ||||* * * und|* Ei- nig-|keit.|
V:2
 G8 | G4 F4 | _E6 G2 | F4 F4 | F8 | D8 | G4 A4 | F6 A2 | (G2 F2) A4 | A8 |[M:2/2] ^F8 | G4 D4 | %12
 F4 G4 | (F2 A2) G4 | ^F8 | D8 | G4 _E4 | (D3 E F2) _E2 | D4 D4 | D8 |] %20
V:3
 B,8 | D4 D4 | (B,3 A, G,2) C2- | C2 B,4 A,2 | B,8 | F8 | E4 C4 | D6 F2 | D4 E4 | F8 | %10
w: ||||||||||
[M:2/2]"^2. Gleich wie der kühle Morgentau\nvon Hermon fället in die Au,\nbefeuchtet auch die Berg Zion,\nLaub und Gras lieblich wächst davon,\n\n4. also Gott Gnad und Leben gibt\ndem, der von Herzen Frieden liebt.\nFriedfert'gen Leuten ist bereit\nhier Guts und dort die Seligkeit." D8 | %11
w: auch|
 D4 B,4 | A,4 B,4 | (B,2 A,2) D4 | D8 | B,8 | G,4 G,4 | (B,3 C D2) C2 | B,4 A,4 | G,8 |] %20
w: ins- ge-|mein die|Chri\- * sten-|leut|le-|ben in|Fried * * und|Ei- nig-|keit.|
V:4
 G,8 | G,4 D,4 | _E,6 C,2 | D,4 F,4 | B,,8 | B,8 | C4 A,4 | B,6 F,2 | (G,2 B,2) A,4 | D,8 | %10
[M:2/2] D,8 | G,4 G,4 | F,4 _E,4 | (B,2 F,2) G,4 | D,8 | G,8 | _E,4 C,4 | B,,6 C,2 | D,4 D,4 | %19
 G,,8 |] %20

